ncols 60
nrows 40
xllcorner -10
yllcorner 40
cellsize 0.05
NODATA_value -9999
-449 -484 -515 -541 -560 -573 -577 -574 -562 -542 -516 -483 -445 -403 -358 -314 -270 -228 -191 -158 -133 -114 -103 -101 -107 -120 -141 -168 -201 -237 -276 -315 -354 -390 -423 -450 -472 -488 -495 -496 -489 -475 -455 -430 -401 -369 -336 -302 -271 -243 -219 -200 -189 -184 -186 -196 -214 -238 -267 -301
-458 -500 -538 -569 -592 -607 -612 -607 -593 -568 -536 -495 -448 -397 -343 -288 -234 -183 -137 -97 -65 -42 -28 -25 -31 -47 -72 -104 -143 -187 -233 -281 -328 -372 -412 -446 -473 -492 -502 -504 -496 -480 -457 -427 -393 -355 -315 -276 -238 -205 -176 -155 -141 -136 -139 -152 -173 -202 -238 -280
-464 -512 -554 -589 -615 -631 -636 -630 -612 -584 -546 -499 -444 -385 -322 -258 -195 -136 -82 -35 2 30 47 52 46 29 2 -35 -78 -127 -180 -234 -288 -338 -384 -424 -456 -478 -491 -494 -487 -470 -446 -413 -376 -334 -291 -247 -206 -169 -138 -115 -100 -95 -100 -115 -139 -173 -214 -262
-467 -517 -562 -599 -626 -642 -647 -639 -619 -587 -544 -492 -431 -365 -295 -224 -154 -88 -27 26 69 101 121 129 124 107 79 41 -5 -57 -114 -172 -231 -286 -337 -381 -417 -443 -459 -464 -459 -443 -419 -387 -348 -306 -261 -217 -174 -137 -105 -81 -67 -63 -69 -86 -114 -151 -196 -248
-465 -517 -562 -599 -626 -642 -645 -635 -612 -577 -530 -473 -408 -337 -261 -185 -109 -37 29 87 135 171 195 206 204 189 162 125 78 25 -33 -94 -155 -213 -267 -315 -354 -384 -403 -412 -410 -397 -375 -346 -310 -269 -226 -184 -143 -107 -77 -55 -42 -40 -48 -67 -97 -136 -184 -239
-460 -510 -554 -589 -614 -627 -628 -616 -590 -553 -9999 -9999 -9999 -299 -220 -140 -60 16 87 149 201 242 270 285 287 275 251 216 172 120 62 2 -59 -119 -175 -224 -267 -300 -323 -336 -339 -331 -314 -290 -259 -223 -186 -148 -112 -79 -53 -35 -25 -26 -36 -58 -89 -130 -179 -234
-450 -496 -536 -568 -589 -599 -597 -582 -554 -514 -462 -400 -330 -253 -172 -89 -6 73 147 213 269 314 347 367 373 367 348 317 277 229 175 117 57 -2 -58 -109 -154 -190 -218 -236 -245 -245 -235 -218 -196 -168 -139 -108 -80 -54 -35 -21 -16 -21 -34 -57 -90 -131 -179 -234
-437 -477 -511 -537 -553 -559 -553 -535 -504 -462 -409 -346 -275 -197 -115 -31 52 133 209 278 338 388 426 451 464 464 452 428 395 353 304 250 194 138 83 31 -15 -56 -88 -113 -129 -138 -138 -132 -120 -104 -85 -66 -47 -31 -20 -14 -15 -24 -41 -66 -99 -139 -186 -238
-420 -451 -477 -496 -506 -506 -496 -474 -441 -398 -344 -280 -210 -133 -51 32 116 197 275 346 409 464 507 539 559 567 564 549 524 490 449 402 352 299 246 195 147 103 65 33 7 -12 -24 -31 -32 -30 -25 -19 -14 -10 -9 -12 -20 -35 -55 -82 -115 -154 -198 -246
-399 -421 -438 -448 -450 -444 -428 -402 -367 -322 -268 -205 -136 -60 19 101 184 265 344 417 483 542 591 631 659 677 683 679 664 641 609 570 527 479 430 380 330 283 239 198 162 131 105 83 66 52 40 30 21 11 0 -14 -31 -52 -76 -105 -138 -175 -215 -257
-376 -386 -392 -393 -386 -373 -351 -322 -284 -237 -183 -122 -54 19 96 175 256 337 415 490 560 623 679 726 764 792 809 817 814 802 781 752 717 676 630 581 531 480 429 380 333 288 246 208 173 140 110 83 56 31 6 -20 -46 -73 -103 -133 -166 -200 -235 -270
-351 -349 -343 -333 -317 -296 -268 -234 -194 -146 -93 -33 32 102 176 253 331 410 489 565 638 706 768 824 871 910 940 960 970 971 962 944 917 883 842 796 744 689 632 573 514 455 397 340 286 234 184 137 93 50 11 -27 -64 -99 -132 -165 -197 -227 -257 -286
-325 -310 -292 -271 -245 -216 -182 -143 -100 -52 1 59 121 188 258 332 408 485 563 641 716 789 859 922 980 1031 1073 1106 1130 1144 1147 1140 1123 1096 1060 1016 964 905 841 772 700 626 551 476 402 329 260 193 129 70 14 -37 -83 -126 -164 -199 -230 -257 -281 -302
-300 -271 -241 -208 -173 -136 -95 -52 -7 42 95 151 210 274 340 411 484 559 637 715 794 872 948 1020 1088 1150 1205 1251 1288 1315 1331 1336 1328 1309 1278 1236 1183 1121 1050 971 887 798 706 612 518 425 334 248 165 88 18 -46 -104 -154 -197 -233 -263 -287 -305 -319
-275 -234 -192 -148 -103 -58 -12 35 84 134 185 239 296 356 419 486 557 630 707 787 869 951 1033 1114 1191 1264 1331 1391 1441 1481 1508 1524 1526 1513 1487 1447 1394 1328 1250 1163 1066 963 854 743 629 517 407 301 200 106 21 -56 -123 -181 -228 -267 -296 -316 -329 -335
-252 -199 -146 -92 -39 13 65 116 167 218 269 321 376 432 492 556 624 696 773 854 938 1024 1112 1201 1287 1370 1449 1520 1582 1633 1673 1698 1708 1703 1681 1643 1589 1520 1436 1340 1232 1116 992 863 733 602 473 350 232 123 24 -65 -141 -206 -258 -297 -325 -343 -350 -350
-231 -169 -106 -43 18 77 133 188 241 292 343 394 445 500 557 618 684 755 831 912 999 1089 1182 1277 1372 1464 1552 1634 1707 1768 1817 1851 1869 1870 1852 1816 1761 1689 1600 1496 1379 1250 1113 970 824 677 532 393 260 138 26 -72 -157 -227 -283 -324 -352 -366 -369 -363
-214 -143 -72 -3 64 128 189 247 301 353 403 453 503 555 610 669 733 803 879 961 1049 1143 1240 1341 1442 1542 1638 1728 1809 1880 1937 1978 2002 2008 1993 1958 1903 1829 1735 1625 1500 1361 1213 1058 899 739 581 429 284 150 29 -79 -170 -245 -304 -346 -373 -386 -385 -373
-202 -125 -48 27 99 167 231 291 346 399 449 497 546 596 650 707 770 839 915 997 1087 1183 1284 1388 1494 1600 1702 1798 1886 1963 2026 2073 2102 2110 2098 2065 2009 1933 1836 1721 1590 1444 1288 1124 955 785 617 455 302 159 30 -83 -180 -259 -320 -363 -389 -400 -397 -381
-194 -113 -33 46 120 191 257 318 374 427 477 525 573 622 674 731 793 861 937 1020 1111 1208 1311 1418 1527 1636 1742 1842 1934 2015 2081 2131 2163 2174 2163 2130 2075 1997 1899 1781 1645 1495 1334 1164 990 814 640 472 313 165 32 -86 -185 -267 -329 -373 -399 -409 -404 -386
-192 -109 -27 52 128 199 265 327 384 436 486 534 582 631 682 739 800 869 944 1028 1119 1216 1320 1428 1538 1648 1755 1857 1950 2032 2100 2151 2184 2196 2185 2153 2097 2019 1920 1801 1664 1513 1350 1178 1001 823 647 477 316 167 32 -87 -187 -269 -332 -376 -402 -412 -406 -388
-194 -113 -33 46 120 191 257 318 374 427 477 525 573 622 674 731 793 861 937 1020 1111 1208 1311 1418 1527 1636 1742 1842 1934 2015 2081 2131 2163 2174 2163 2130 2075 1997 1899 1781 1645 1495 1334 1164 990 814 640 472 313 165 32 -86 -185 -267 -329 -373 -399 -409 -404 -386
-202 -125 -48 27 99 167 231 291 346 399 449 497 546 596 650 707 770 839 915 997 1087 1183 1284 1388 1494 1600 1702 1798 1886 1963 2026 2073 2102 2110 2098 2065 2009 1933 1836 1721 1590 1444 1288 1124 955 785 617 455 302 159 30 -83 -180 -259 -320 -363 -389 -400 -397 -381
-214 -143 -72 -3 64 128 189 247 301 353 403 453 503 555 610 669 733 803 879 961 1049 1143 1240 1341 1442 1542 1638 1728 1809 1880 1937 1978 2002 2008 1993 1958 1903 1829 1735 1625 1500 1361 1213 1058 899 739 581 429 284 150 29 -79 -170 -245 -304 -346 -373 -386 -385 -373
-231 -169 -106 -43 18 77 133 188 241 292 343 394 445 500 557 618 684 755 831 912 999 1089 1182 1277 1372 1464 1552 1634 1707 1768 1817 1851 1869 1870 1852 1816 1761 1689 1600 1496 1379 1250 1113 970 824 677 532 393 260 138 26 -72 -157 -227 -283 -324 -352 -366 -369 -363
-252 -199 -146 -92 -39 13 65 116 167 218 269 321 376 432 492 556 624 696 773 854 938 1024 1112 1201 1287 1370 1449 1520 1582 1633 1673 1698 1708 1703 1681 1643 1589 1520 1436 1340 1232 1116 992 863 733 602 473 350 232 123 24 -65 -141 -206 -258 -297 -325 -343 -350 -350
-275 -234 -192 -148 -103 -58 -12 35 84 134 185 239 296 356 419 486 557 630 707 787 869 951 1033 1114 1191 1264 1331 1391 1441 1481 1508 1524 1526 1513 1487 1447 1394 1328 1250 1163 1066 963 854 743 629 517 407 301 200 106 21 -56 -123 -181 -228 -267 -296 -316 -329 -335
-300 -271 -241 -208 -173 -136 -95 -52 -7 42 95 151 210 274 340 411 484 559 637 715 794 872 948 1020 1088 1150 1205 1251 1288 1315 1331 1336 1328 1309 1278 1236 1183 1121 1050 971 887 798 706 612 518 425 334 248 165 88 18 -46 -104 -154 -197 -233 -263 -287 -305 -319
-325 -310 -292 -271 -245 -216 -182 -143 -100 -52 1 59 121 188 258 332 408 485 563 641 716 789 859 922 980 1031 1073 1106 1130 1144 1147 1140 1123 1096 1060 1016 964 905 841 772 700 626 551 476 402 329 260 193 129 70 14 -37 -83 -126 -164 -199 -230 -257 -281 -302
-351 -349 -343 -333 -317 -296 -268 -234 -194 -146 -93 -33 32 102 176 253 331 410 489 565 638 706 768 824 871 910 940 960 970 971 962 944 917 883 842 796 744 689 632 573 514 455 397 340 286 234 184 137 93 50 11 -27 -64 -99 -132 -165 -197 -227 -257 -286
-376 -386 -392 -393 -386 -373 -351 -322 -284 -237 -183 -122 -54 19 96 175 256 337 415 490 560 623 679 726 764 792 809 817 814 802 781 752 717 676 630 581 531 480 429 380 333 288 246 208 173 140 110 83 56 31 6 -20 -46 -73 -103 -133 -166 -200 -235 -270
-399 -421 -438 -448 -450 -444 -428 -402 -367 -322 -268 -205 -136 -60 19 101 184 265 344 417 483 542 591 631 659 677 683 679 664 641 609 570 527 479 430 380 330 283 239 198 162 131 105 83 66 52 40 30 21 11 0 -14 -31 -52 -76 -105 -138 -175 -215 -257
-420 -451 -477 -496 -506 -506 -496 -474 -441 -398 -344 -280 -210 -133 -51 32 116 197 275 346 409 464 507 539 559 567 564 549 524 490 449 402 352 299 246 195 147 103 65 33 7 -12 -24 -31 -32 -30 -25 -19 -14 -10 -9 -12 -20 -35 -55 -82 -115 -154 -198 -246
-437 -477 -511 -537 -553 -559 -553 -535 -504 -462 -409 -346 -275 -197 -115 -31 52 133 209 278 338 388 426 451 464 464 452 428 395 353 304 250 194 138 83 31 -15 -56 -88 -113 -129 -138 -138 -132 -120 -104 -85 -66 -47 -31 -20 -14 -15 -24 -41 -66 -99 -139 -186 -238
-450 -496 -536 -568 -589 -599 -597 -582 -554 -514 -462 -400 -330 -253 -172 -89 -6 73 147 213 269 314 347 367 373 367 348 317 277 229 175 117 57 -2 -58 -109 -154 -190 -218 -236 -245 -245 -235 -218 -196 -168 -139 -108 -80 -54 -35 -21 -16 -21 -34 -57 -90 -131 -179 -234
-460 -510 -554 -589 -614 -627 -628 -616 -590 -553 -503 -443 -374 -299 -220 -140 -60 16 87 149 201 242 270 285 287 275 251 216 172 120 62 2 -59 -119 -175 -224 -267 -300 -323 -336 -339 -331 -314 -290 -259 -223 -186 -148 -112 -79 -53 -35 -25 -26 -36 -58 -89 -130 -179 -234
-465 -517 -562 -599 -626 -642 -645 -635 -612 -577 -530 -473 -408 -337 -261 -185 -109 -37 29 87 135 171 195 206 204 189 162 125 78 25 -33 -94 -155 -213 -267 -315 -354 -384 -403 -412 -410 -397 -375 -346 -310 -269 -226 -184 -143 -107 -77 -55 -42 -40 -48 -67 -97 -136 -184 -239
-467 -517 -562 -599 -626 -642 -647 -639 -619 -587 -544 -492 -431 -365 -295 -224 -154 -88 -27 26 69 101 121 129 124 107 79 41 -5 -57 -114 -172 -231 -286 -337 -381 -417 -443 -459 -464 -459 -443 -419 -387 -348 -306 -261 -217 -174 -137 -105 -81 -67 -63 -69 -86 -114 -151 -196 -248
-464 -512 -554 -589 -615 -631 -636 -630 -612 -584 -546 -499 -444 -385 -322 -258 -195 -136 -82 -35 2 30 47 52 46 29 2 -35 -78 -127 -180 -234 -288 -338 -384 -424 -456 -478 -491 -494 -487 -470 -446 -413 -376 -334 -291 -247 -206 -169 -138 -115 -100 -95 -100 -115 -139 -173 -214 -262
-458 -500 -538 -569 -592 -607 -612 -607 -593 -568 -536 -495 -448 -397 -343 -288 -234 -183 -137 -97 -65 -42 -28 -25 -31 -47 -72 -104 -143 -187 -233 -281 -328 -372 -412 -446 -473 -492 -502 -504 -496 -480 -457 -427 -393 -355 -315 -276 -238 -205 -176 -155 -141 -136 -139 -152 -173 -202 -238 -280
